X: 1281
T: Earl of Marshall.   a Reel.
%R: reel
B: Niel Gow & Sons "Complete Repository" v.1 p.23 #1
Z: 2021 John Chambers <jc:trillian.mit.edu>
M: C
L: 1/8
K: F
% - - - - - - - - - -
% Voice 1 formatted for compactness and proofreading.
V: 1 staves=2
A !segno!|\
F2FA cAAc | (A/B/c) (FA) cAAf | F2(FA) cAAc | dfTc>A G/G/G G :| g | (f/g/a) fc Td3f | cfAf cfAf |
(a/g/f/e/) fc Td3f | cAfd TcAGg || (f/g/a) fc Td3f | cfAf cfAf | (a/g/f/e/) fc Td>efd | cAfd TcAGA !segno! |]
% - - - - - - - - - -
% Voice 2 preserves the book's staff layout.
V: 2 clef=bass middle=d
z !segno!|\
f2f2 f2f2 | f2f2 f2f2 | f2f2 f2f2 | b2a2 g2g :| z | f2a2 b2b2 | a2f2 a2f2 |
f2a2 b2b2 | a2b2 c'2c2 || f2a2 b2b2 | a2f2 a2f2 | f2a2 b2b2 | a2b2 c'2c2 !segno!|]


